assets/images/logo-twitter-white.svg

<svg width="512" height="512" viewBox="0 0 512 512" fill="none" xmlns="http://www.w3.org/2000/svg">
<path d="M161 464.05C354.24 464.05 459.9 304 459.9 165.18C459.9 160.627 459.8 156.1 459.6 151.6C480.155 136.722 497.898 118.305 512 97.21C492.833 105.704 472.5 111.276 451.68 113.74C473.608 100.61 490.022 79.9635 497.87 55.64C477.249 67.8705 454.692 76.491 431.17 81.13C415.329 64.3027 394.385 53.1631 371.577 49.4336C348.769 45.7042 325.368 49.5927 304.992 60.4979C284.616 71.403 268.4 88.7174 258.852 109.764C249.304 130.81 246.956 154.415 252.17 176.93C210.399 174.845 169.535 163.996 132.23 145.088C94.926 126.18 62.0166 99.6362 35.64 67.18C22.2033 90.3054 18.0857 117.683 24.1256 143.737C30.1656 169.792 45.9089 192.565 68.15 207.42C51.4706 206.908 35.1575 202.402 20.58 194.28C20.58 194.72 20.58 195.16 20.58 195.62C20.5821 219.878 28.976 243.388 44.3376 262.161C59.6993 280.935 81.0827 293.816 104.86 298.62C89.3932 302.845 73.1625 303.461 57.42 300.42C64.124 321.3 77.1874 339.562 94.7825 352.651C112.378 365.74 133.624 373.002 155.55 373.42C118.346 402.636 72.3945 418.486 25.09 418.42C16.7035 418.396 8.32568 417.878 0 416.87C48.027 447.721 103.918 464.1 161 464.05Z" fill="white"/>
</svg>

<svg id="Logo" xmlns="http://www.w3.org/2000/svg" viewBox="0 0 512 512"><defs><style>.cls-1{fill:#fff;filter:drop-shadow(10px 10px 5px #000);}</style></defs><title>logo-twitter-white</title><path class="cls-1" d="M161,464.05C354.24,464.05,459.9,304,459.9,165.18q0-6.83-.3-13.58A213.88,213.88,0,0,0,512,97.21a209.69,209.69,0,0,1-60.32,16.53,105.47,105.47,0,0,0,46.19-58.1,210.65,210.65,0,0,1-66.7,25.49,105.15,105.15,0,0,0-179,95.8A298.17,298.17,0,0,1,35.64,67.18,105.13,105.13,0,0,0,68.15,207.42a104.32,104.32,0,0,1-47.57-13.14c0,.44,0,.88,0,1.34a105.09,105.09,0,0,0,84.28,103,104.68,104.68,0,0,1-47.44,1.8,105.17,105.17,0,0,0,98.13,73,210.76,210.76,0,0,1-130.46,45A213.75,213.75,0,0,1,0,416.87a297.41,297.41,0,0,0,161,47.18"/></svg>
